!!!COM: Béla Bartók
!!!OTL: [T342_Bar-w40p15-16m98-107]
**kern	**dynam	**kern	**dynam	**kern	**dynam	**kern	**dynam	**kern	**dynam	**kern	**dynam	**kern	**dynam	**kern	**dynam	**kern	**dynam	**kern	**dynam	**kern	**dynam	**kern	**dynam	**kern	**dynam	**kern	**dynam
*grp:A	*grp:A	*grp:A	*grp:A	*grp:A	*grp:A	*grp:A	*grp:A	*grp:B	*grp:B	*grp:B	*grp:B	*grp:B	*grp:B	*grp:B	*grp:B	*grp:A	*grp:A	*grp:B	*grp:B	*grp:B	*grp:B	*grp:B	*grp:B	*grp:B	*grp:B	*grp:B	*grp:B
*part13	*	*part13	*part13	*part12	*part12	*part11	*part11	*part10	*part10	*part9	*part9	*part8	*part8	*part7	*part7	*part6	*part6	*part5	*part5	*part4	*part4	*part3	*part3	*part2	*part2	*part1	*part1
*staff14	*	*staff13	*	*staff12	*	*staff11	*	*staff10	*	*staff9	*	*staff8	*	*staff7	*	*staff6	*	*staff5	*	*staff4	*	*staff3	*	*staff2	*	*staff1	*
*I"Piano	*	*	*	*I"Snare Drum	*	*I"Timpani	*	*I"Trombone 2.	*	*I"Trombone 1.	*	*I"Horn in F 2. 4.	*	*I"Horn in F 1. 3.	*	*I"Contrabassoon	*	*I"Bassoon 1. 2.	*	*I"Clarinet in Bb 1. 2.	*	*I"Oboe 1. 2.	*	*I"Flute 1.2.	*	*I"Piccolo	*
*I'Pno.	*	*	*	*I'S.D.	*	*I'Timp.	*	*I'Tbn. 2.	*	*I'Tbn. 1	*	*I'Hn. in F 2. 4.	*	*I'Hn. in F 1. 3.	*	*I'Cbsn.	*	*I'Bsn. 1. 2.	*	*I'Cl. in Bb 1. 2.	*	*I'Ob. 1. 2.	*	*I'Fl. 1. 2.	*	*I'Picc.	*
*	*	*	*	*Isdrum	*	*	*	*	*	*	*	*	*	*	*	*	*	*	*	*	*	*	*	*	*	*	*
*	*	*	*	*stria1	*	*	*	*	*	*	*	*	*	*	*	*	*	*	*	*	*	*	*	*	*	*	*
*clefF4	*	*clefG2	*	*clefX	*	*clefF4	*	*clefF4	*	*clefF4	*	*clefG2	*	*clefG2	*	*clefF4	*	*clefF4	*	*clefG2	*	*clefG2	*	*clefG2	*	*clefG2	*
*	*	*	*	*	*	*	*	*	*	*	*	*ITrd4c7	*	*ITrd4c7	*	*ITrd7c12	*	*	*	*ITrd1c2	*	*	*	*	*	*ITrd-7c-12	*
*k[]	*	*k[]	*	*k[]	*	*k[]	*	*k[]	*	*k[]	*	*k[b-]	*	*k[b-]	*	*k[]	*	*k[]	*	*k[b-e-]	*	*k[]	*	*k[]	*	*k[]	*
*	*	*	*	*C:	*	*	*	*	*	*	*	*	*	*	*	*	*	*	*	*	*	*	*	*	*	*	*
*M3/4	*	*M3/4	*	*M3/4	*	*M3/4	*	*M3/4	*	*M3/4	*	*M3/4	*	*M3/4	*	*M3/4	*	*M3/4	*	*M3/4	*	*M3/4	*	*M3/4	*	*M3/4	*
=98	=98	=98	=98	=98	=98	=98	=98	=98	=98	=98	=98	=98	=98	=98	=98	=98	=98	=98	=98	=98	=98	=98	=98	=98	=98	=98	=98
!LO:TX:b:i:t=marc.	!	!	!LO:DY:t=[più %s ]	!	!LO:DY:ed=brack	!	!	!	!	!	!	!	!	!	!	!	!	!	!	!	!	!	!	!	!	!LO:TX:t=[Mosso [quarter]=104]	!
16ryy	.	8ryy	4ryy	16ryy	4ryy	4ryy	.	4%3r	.	4%3r	.	4%3r	.	4%3r	.	4%3r)yy	.	4%3r)	.	4%3r)	.	4%3r)	.	4%3r)	.	4%3r	.
16ryy	.	.	.	16ryy	.	.	.	.	.	.	.	.	.	.	.	.	.	.	.	.	.	.	.	.	.	.	.
16ryy	.	16ryy	.	8ryy	.	.	.	.	.	.	.	.	.	.	.	.	.	.	.	.	.	.	.	.	.	.	.
16ryy	.	16ryy	.	.	.	.	.	.	.	.	.	.	.	.	.	.	.	.	.	.	.	.	.	.	.	.	.
!	!	!	!	!	!LO:DY:t=più %s	!	!LO:DY:t=più %s	!	!	!	!	!	!	!	!	!	!	!	!	!	!	!	!	!	!	!	!
4ryy	.	16ryy	4ryy	8ryy	4ryy	4ryy	4ryy	.	.	.	.	.	.	.	.	.	.	.	.	.	.	.	.	.	.	.	.
.	.	16ryy	.	.	.	.	.	.	.	.	.	.	.	.	.	.	.	.	.	.	.	.	.	.	.	.	.
.	.	16ryy	.	16ryy	.	.	.	.	.	.	.	.	.	.	.	.	.	.	.	.	.	.	.	.	.	.	.
.	.	16ryy	.	16ryy	.	.	.	.	.	.	.	.	.	.	.	.	.	.	.	.	.	.	.	.	.	.	.
8ryy	.	8ryy	.	16ryy	.	4ryy	.	.	.	.	.	.	.	.	.	.	.	.	.	.	.	.	.	.	.	.	.
.	.	.	.	16ryy	.	.	.	.	.	.	.	.	.	.	.	.	.	.	.	.	.	.	.	.	.	.	.
*clefG2	*	*	*	*	*	*	*	*	*	*	*	*	*	*	*	*	*	*	*	*	*	*	*	*	*	*	*
8ryy	.	16ryy	.	8ryy	.	.	.	.	.	.	.	.	.	.	.	.	.	.	.	.	.	.	.	.	.	.	.
.	.	16ryy	.	.	.	.	.	.	.	.	.	.	.	.	.	.	.	.	.	.	.	.	.	.	.	.	.
=99	=99	=99	=99	=99	=99	=99	=99	=99	=99	=99	=99	=99	=99	=99	=99	=99	=99	=99	=99	=99	=99	=99	=99	=99	=99	=99	=99
*	*	*	*	*	*	*	*	*	*	*	*	*^	*	*	*	*	*	*	*	*	*	*	*	*	*	*	*
8ryy	.	8ryy	.	16ryy	.	8ryy	.	4%3r	.	4%3r	.	4r	4%3rc	.	4r	.	4%3ryy	.	4%3r	.	4%3r	.	4%3r	.	4%3r	.	4%3r	.
.	.	.	.	16ryy	.	.	.	.	.	.	.	.	.	.	.	.	.	.	.	.	.	.	.	.	.	.	.	.
*clefF4	*	*	*	*	*	*	*	*	*	*	*	*	*	*	*	*	*	*	*	*	*	*	*	*	*	*	*	*
8ryy	.	16ryy	.	8ryy	.	8ryy	.	.	.	.	.	.	.	.	.	.	.	.	.	.	.	.	.	.	.	.	.	.
.	.	16ryy	.	.	.	.	.	.	.	.	.	.	.	.	.	.	.	.	.	.	.	.	.	.	.	.	.	.
!	!	!	!	!	!	!	!	!	!	!	!	!	!	!	!LO:TX:a:t=à4	!	!	!	!	!	!	!	!	!	!	!	!	!
8ryy	.	16ryy	.	16ryy	.	8ryy	.	.	.	.	.	8r	.	.	8r	.	.	.	.	.	.	.	.	.	.	.	.	.
.	.	16ryy	.	16ryy	.	.	.	.	.	.	.	.	.	.	.	.	.	.	.	.	.	.	.	.	.	.	.	.
8ryy	.	16ryy	.	8ryy	.	8ryy	.	.	.	.	.	(8c#XL	.	ff	(8c#XL	ff	.	.	.	.	.	.	.	.	.	.	.	.
.	.	16ryy	.	.	.	.	.	.	.	.	.	.	.	.	.	.	.	.	.	.	.	.	.	.	.	.	.	.
8ryy	.	8ryy	.	16ryy	.	8ryy	.	.	.	.	.	8d)	.	.	8d)	.	.	.	.	.	.	.	.	.	.	.	.	.
.	.	.	.	16ryy	.	.	.	.	.	.	.	.	.	.	.	.	.	.	.	.	.	.	.	.	.	.	.	.
8ryy	.	16ryy	.	8ryy	.	8ryy	.	.	.	.	.	8fJ	.	.	8fJ	.	.	.	.	.	.	.	.	.	.	.	.	.
.	.	16ryy	.	.	.	.	.	.	.	.	.	.	.	.	.	.	.	.	.	.	.	.	.	.	.	.	.	.
*	*	*	*	*	*	*	*	*	*	*	*	*v	*v	*	*	*	*	*	*	*	*	*	*	*	*	*	*	*
!!LO:REH:t=100
=100	=100	=100	=100	=100	=100	=100	=100	=100	=100	=100	=100	=100	=100	=100	=100	=100	=100	=100	=100	=100	=100	=100	=100	=100	=100	=100	=100
*	*	*	*	*	*	*	*	*	*	*	*	*^	*	*	*	*	*	*	*	*	*	*	*	*	*	*	*
*8ba	*	*	*	*	*	*	*	*	*	*	*	*	*	*	*	*	*	*	*	*	*	*	*	*	*	*	*	*
8ryy	.	8ryy	.	8ryy	.	4ryy	.	4%3r	.	4%3r	.	8g-X^^	4%3r	.	8g-X^^	.	4%3ryy	.	4%3r	.	4%3r	.	4%3r	.	4%3r	.	4%3r	.
*X8ba	*	*	*	*	*	*	*	*	*	*	*	*	*	*	*	*	*	*	*	*	*	*	*	*	*	*	*	*
16ryy	.	16ryy	.	16ryy	.	.	.	.	.	.	.	4f	.	.	4f	.	.	.	.	.	.	.	.	.	.	.	.	.
16ryy	.	16ryy	.	16ryy	.	.	.	.	.	.	.	.	.	.	.	.	.	.	.	.	.	.	.	.	.	.	.	.
16ryy	.	16ryy	.	8ryy	.	4ryy	.	.	.	.	.	.	.	.	.	.	.	.	.	.	.	.	.	.	.	.	.	.
16ryy	.	16ryy	.	.	.	.	.	.	.	.	.	.	.	.	.	.	.	.	.	.	.	.	.	.	.	.	.	.
8ryy	.	8ryy	.	16ryy	.	.	.	.	.	.	.	16eLL	.	.	16eLL	.	.	.	.	.	.	.	.	.	.	.	.	.
.	.	.	.	16ryy	.	.	.	.	.	.	.	16d#XJJ	.	.	16d#XJJ	.	.	.	.	.	.	.	.	.	.	.	.	.
16ryy	.	16ryy	.	8ryy	.	8ryy	.	.	.	.	.	8eL	.	.	8eL	.	.	.	.	.	.	.	.	.	.	.	.	.
16ryy	.	16ryy	.	.	.	.	.	.	.	.	.	.	.	.	.	.	.	.	.	.	.	.	.	.	.	.	.	.
8ryy	.	8ryy	.	16ryy	.	8ryy	.	.	.	.	.	16d#L	.	.	16d#L	.	.	.	.	.	.	.	.	.	.	.	.	.
.	.	.	.	16ryy	.	.	.	.	.	.	.	16dJJ	.	.	16dJJ	.	.	.	.	.	.	.	.	.	.	.	.	.
!!pagebreak:original
=101	=101	=101	=101	=101	=101	=101	=101	=101	=101	=101	=101	=101	=101	=101	=101	=101	=101	=101	=101	=101	=101	=101	=101	=101	=101	=101	=101	=101
!	!	!	!	!	!	!	!	!	!	!	!	!	!	!	!LO:TX:a:t=à2	!	!	!	!	!	!	!	!	!	!	!	!	!
16ryy	.	16ryy	.	8ryy	.	8ryy	.	4%3r	.	4%3r	.	8e-XL	4%3r	.	8e-XL	.	4%3ryy	.	4%3r	.	4%3r	.	4%3r	.	4%3r	.	4%3r	.
16ryy	.	16ryy	.	.	.	.	.	.	.	.	.	.	.	.	.	.	.	.	.	.	.	.	.	.	.	.	.	.
8ryy	.	8ryy	.	16ryy	.	8ryy	.	.	.	.	.	16dL	.	.	16dL	.	.	.	.	.	.	.	.	.	.	.	.	.
.	.	.	.	16ryy	.	.	.	.	.	.	.	16c#XJJ	.	.	16c#XJJ	.	.	.	.	.	.	.	.	.	.	.	.	.
8ryy	.	8ryy	.	8ryy	.	8ryy	.	.	.	.	.	16cLL	.	.	16cLL	.	.	.	.	.	.	.	.	.	.	.	.	.
.	.	.	.	.	.	.	.	.	.	.	.	16BXJ	.	.	16BXJ	.	.	.	.	.	.	.	.	.	.	.	.	.
16ryy	.	16ryy	.	8ryy	.	8ryy	.	.	.	.	.	8cJ	.	.	8cJ	.	.	.	.	.	.	.	.	.	.	.	.	.
16ryy	.	16ryy	.	.	.	.	.	.	.	.	.	.	.	.	.	.	.	.	.	.	.	.	.	.	.	.	.	.
8ryy	.	8ryy	.	8ryy	.	8ryy	.	.	.	.	.	8d-X^^	.	.	8d-X^^<	.	.	.	.	.	.	.	.	.	.	.	.	.
24ryy	.	24ryy	.	16ryy	.	8ryy	.	.	.	.	.	[8B-L	.	.	[8B-L	.	.	.	.	.	.	.	.	.	.	.	.	.
24ryy	.	24ryy	.	.	.	.	.	.	.	.	.	.	.	.	.	.	.	.	.	.	.	.	.	.	.	.	.	.
.	.	.	.	16ryy	.	.	.	.	.	.	.	.	.	.	.	.	.	.	.	.	.	.	.	.	.	.	.	.
24ryy	.	24ryy	.	.	.	.	.	.	.	.	.	.	.	.	.	.	.	.	.	.	.	.	.	.	.	.	.	.
*	*	*	*	*	*	*	*	*	*	*	*	*v	*v	*	*	*	*	*	*	*	*	*	*	*	*	*	*	*
=102	=102	=102	=102	=102	=102	=102	=102	=102	=102	=102	=102	=102	=102	=102	=102	=102	=102	=102	=102	=102	=102	=102	=102	=102	=102	=102	=102
*8ba	*	*	*	*	*	*	*	*	*	*	*	*	*	*	*	*	*	*	*	*	*	*	*	*	*	*	*
*	*	*	*	*	*	*	*	*	*	*	*	*^	*	*	*	*	*	*	*	*	*	*	*	*	*	*	*
8ryy	.	8ryy	.	8ryy	.	4ryy	.	4%3r	.	4%3r	.	8B-J]	4rG	.	8B-J]	.	4%3ryy	.	4%3r	.	4%3r	.	4%3r	.	4%3r	.	4%3r	.
*X8ba	*	*	*	*	*	*	*	*	*	*	*	*	*	*	*	*	*	*	*	*	*	*	*	*	*	*	*	*
8ryy	.	16ryy	.	16ryy	.	.	.	.	.	.	.	16ALL	.	.	16ALL	.	.	.	.	.	.	.	.	.	.	.	.	.
.	.	16ryy	.	16ryy	.	.	.	.	.	.	.	16BXJJ	.	.	16BXJJ	.	.	.	.	.	.	.	.	.	.	.	.	.
8ryy	.	16ryy	.	8ryy	.	4ryy	.	.	.	.	.	8cL	4rG	.	8cL	.	.	.	.	.	.	.	.	.	.	.	.	.
.	.	16ryy	.	.	.	.	.	.	.	.	.	.	.	.	.	.	.	.	.	.	.	.	.	.	.	.	.	.
8ryy	.	16ryy	.	16ryy	.	.	.	.	.	.	.	16B-L	.	.	16B-L	.	.	.	.	.	.	.	.	.	.	.	.	.
.	.	16ryy	.	16ryy	.	.	.	.	.	.	.	16A-XJJ	.	.	16A-XJJ	.	.	.	.	.	.	.	.	.	.	.	.	.
8ryy	.	8ryy	.	8ryy	.	8ryy	.	.	.	.	.	16GLL	16GLL	.	16GLL	.	.	.	.	.	.	.	.	.	.	.	.	.
.	.	.	.	.	.	.	.	.	.	.	.	16FJ	16FJ	.	16FJ	.	.	.	.	.	.	.	.	.	.	.	.	.
8ryy	.	16ryy	.	8ryy	.	8ryy	.	.	.	.	.	8GJ	8GJ	.	8GJ	.	.	.	.	.	.	.	.	.	.	.	.	.
.	.	16ryy	.	.	.	.	.	.	.	.	.	.	.	.	.	.	.	.	.	.	.	.	.	.	.	.	.	.
*	*	*	*	*	*	*	*	*	*	*	*	*v	*v	*	*	*	*	*	*	*	*	*	*	*	*	*	*	*
=103	=103	=103	=103	=103	=103	=103	=103	=103	=103	=103	=103	=103	=103	=103	=103	=103	=103	=103	=103	=103	=103	=103	=103	=103	=103	=103	=103
!	!	!	!	!	!	!	!	!	!	!	!	!LO:TX:a:t=à2	!	!	!	!	!	!	!	!	!	!	!	!	!	!	!
8ryy	.	16ryy	.	16ryy	.	4ryy	.	8A^^	f	4r	.	8An^^	.	8An	.	4%3ryy	.	4%3r	.	4%3r	.	4%3r	.	4%3r	.	4%3r	.
.	.	16ryy	.	16ryy	.	.	.	.	.	.	.	.	.	.	.	.	.	.	.	.	.	.	.	.	.	.	.
8ryy	.	16ryy	.	8ryy	.	.	.	4F#X	.	.	.	4F#X	.	8r	.	.	.	.	.	.	.	.	.	.	.	.	.
.	.	16ryy	.	.	.	.	.	.	.	.	.	.	.	.	.	.	.	.	.	.	.	.	.	.	.	.	.
8ryy	.	16ryy	.	8ryy	.	8ryy	.	.	.	8r	.	.	.	4r	.	.	.	.	.	.	.	.	.	.	.	.	.
.	.	16ryy	.	.	.	.	.	.	.	.	.	.	.	.	.	.	.	.	.	.	.	.	.	.	.	.	.
8ryy	.	16ryy	.	16ryy	.	8ryy	.	8r	.	16FnLL	f	16FLL	.	.	.	.	.	.	.	.	.	.	.	.	.	.	.
.	.	16ryy	.	16ryy	.	.	.	.	.	16GJJ	.	16GJJ	.	.	.	.	.	.	.	.	.	.	.	.	.	.	.
16ryy	.	8ryy	.	8ryy	.	4ryy	.	16G#XLL	.	8G#X	.	16G#XLL	.	8r	.	.	.	.	.	.	.	.	.	.	.	.	.
!LO:TX:b:i:t=marcatissimo	!	!	!	!	!	!	!	!	!	!	!	!	!	!	!	!	!	!	!	!	!	!	!	!	!	!	!
16ryy	.	.	.	.	.	.	.	16F#XJ	.	.	.	16F#XJ	.	.	.	.	.	.	.	.	.	.	.	.	.	.	.
16ryy	.	24ryy	4ryy	16ryy	.	.	.	8EJ	.	8r	.	8EJ	.	(>8G#XL (8g#X	ff	.	.	.	.	.	.	.	.	.	.	.	.
.	.	24ryy	.	.	.	.	.	.	.	.	.	.	.	.	.	.	.	.	.	.	.	.	.	.	.	.	.
16ryy	.	.	.	16ryy	.	.	.	.	.	.	.	.	.	.	.	.	.	.	.	.	.	.	.	.	.	.	.
.	.	24ryy	.	.	.	.	.	.	.	.	.	.	.	.	.	.	.	.	.	.	.	.	.	.	.	.	.
!!pagebreak:original
=104	=104	=104	=104	=104	=104	=104	=104	=104	=104	=104	=104	=104	=104	=104	=104	=104	=104	=104	=104	=104	=104	=104	=104	=104	=104	=104	=104
*	*	*	*	*	*	*	*	*	*	*	*	*	*	*^	*	*	*	*	*	*	*	*	*	*	*	*	*
!	!	!	!	!	!	!	!	!	!	!	!	!LO:TX:a:t=à2	!	!	!	!	!	!	!	!	!	!	!	!	!	!	!	!
8ryy	.	8ryy	4ryy	16ryy	.	4ryy	.	4%3r	.	8Fn^^L	.	8Fn^^<	.	8aL)	8AL)	.	2.ryy	4ryy	4r	.	4r	.	4r	.	4r	.	4%3r	.
.	.	.	.	16ryy	.	.	.	.	.	.	.	.	.	.	.	.	.	.	.	.	.	.	.	.	.	.	.	.
8ryy	.	16ryy	.	8ryy	.	.	.	.	.	8BB-XJ	.	[8BB-	.	8ccJ	8cJ	.	.	.	.	.	.	.	.	.	.	.	.	.
.	.	16ryy	.	.	.	.	.	.	.	.	.	.	.	.	.	.	.	.	.	.	.	.	.	.	.	.	.	.
!	!	!	!	!	!	!	!	!	!	!	!	!	!	!	!	!	!	!	!LO:TX:a:t=à2	!	!LO:TX:a:t=à2	!	!	!	!LO:TX:a:t=à2	!	!	!
8ryy	.	8ryy	.	8ryy	.	4ryy	.	.	.	4r	.	2BB-_	.	8dd-X^^	8d-X^^	.	.	.	8r	.	8r	.	8r	.	8r	.	.	.
*	*	*	*	*	*	*	*	*	*	*	*	*	*	*	*	*	*	*	*clefC4	*	*	*	*	*	*	*	*	*
8ryy	.	16ryy	.	16ryy	.	.	.	.	.	.	.	.	.	4cc	4c	.	.	.	(8dL	ff	(8ddL	ff	(8dL 8dd	ff	(8ddL	f	.	.
.	.	16ryy	.	16ryy	.	.	.	.	.	.	.	.	.	.	.	.	.	.	.	.	.	.	.	.	.	.	.	.
8ryy	.	16ryy	.	8ryy	.	8ryy	.	.	.	4r	.	.	.	.	.	.	.	.	8e-X)	.	8ee-)	.	8e-X 8ee-X)	.	8ee-X)	.	.	.
.	.	16ryy	.	.	.	.	.	.	.	.	.	.	.	.	.	.	.	.	.	.	.	.	.	.	.	.	.	.
8ryy	.	8ryy	.	16ryy	.	8ryy	.	.	.	.	.	.	.	16cc-XLL	16c-XLL	.	.	.	8f#XJ	.	8ff#XJ	.	8f#XJ 8ff#X	.	8ff#XJ	.	.	.
.	.	.	.	16ryy	.	.	.	.	.	.	.	.	.	16b-JJ	16B-JJ	.	.	.	.	.	.	.	.	.	.	.	.	.
!!LO:REH:t=105
=105	=105	=105	=105	=105	=105	=105	=105	=105	=105	=105	=105	=105	=105	=105	=105	=105	=105	=105	=105	=105	=105	=105	=105	=105	=105	=105	=105	=105
8ryy	.	8ryy	.	8ryy	.	4ryy	.	4%3r	.	4%3r	.	8BB-L]	.	8cc-XL	8c-XL	.	2.ryy	.	8g^^	.	8gg^^	.	8g^^ 8gg	.	8gg^^	.	4%3r	.
8ryy	.	8ryy	.	16ryy	.	.	.	.	.	.	.	8FJ	.	16b-L	16B-L	.	.	.	4f#X	.	4ff#X	.	4f#X 4ff#X	.	4ff#X	.	.	.
.	.	.	.	16ryy	.	.	.	.	.	.	.	.	.	16aJJ	16AJJ	.	.	.	.	.	.	.	.	.	.	.	.	.
8ryy	.	8ryy	.	8ryy	.	4ryy	.	.	.	.	.	8B-L	.	8b-L	2B-	.	.	.	.	.	.	.	.	.	.	.	.	.
8ryy	.	8ryy	.	16ryy	.	.	.	.	.	.	.	16AL	.	16aL	.	.	.	.	16fnLL	.	16ffLL	.	16fnLL 16ffn	.	16ffnLL	.	.	.
.	.	.	.	16ryy	.	.	.	.	.	.	.	16A-XJJ	.	16a-XJJ	.	.	.	.	16enJJ	.	16eeXJJ	.	16enJJ 16een	.	16eenJJ	.	.	.
8ryy	.	8ryy	.	16ryy	.	8ryy	.	.	.	.	.	16GLL	.	16gLL	.	.	.	.	8fL	.	8ffL	.	8fL 8ff	.	8ffL	.	.	.
.	.	.	.	16ryy	.	.	.	.	.	.	.	16F#XJ	.	16f#XJ	.	.	.	.	.	.	.	.	.	.	.	.	.	.
8ryy	.	16ryy	.	16ryy	.	8ryy	.	.	.	.	.	8GJ	.	8gJ	.	.	.	.	16eL	.	16eeL	.	16eL 16ee	.	16eeL	.	.	.
.	.	16ryy	.	16ryy	.	.	.	.	.	.	.	.	.	.	.	.	.	.	16d#XJJ	.	16ee-JJ	.	16d#XJJ 16dd#X	.	16dd#XJJ	.	.	.
=106	=106	=106	=106	=106	=106	=106	=106	=106	=106	=106	=106	=106	=106	=106	=106	=106	=106	=106	=106	=106	=106	=106	=106	=106	=106	=106	=106	=106
8ryy	.	16ryy	.	8ryy	.	4ryy	.	4%3r	.	4%3r	.	8A-X^^	.	8a-X^^>/	[<2.B-\	.	2.ryy	.	8eL	.	8eeXL	.	8eL 8ee	.	8eeL	.	4%3r	.
.	.	16ryy	.	.	.	.	.	.	.	.	.	.	.	.	.	.	.	.	.	.	.	.	.	.	.	.	.	.
8ryy	.	8ryy	.	16ryy	.	.	.	.	.	.	.	4F	.	4f/	.	.	.	.	16e-XL	.	16ee-L	.	16e-XL 16ee-X	.	16ee-XL	.	.	.
.	.	.	.	16ryy	.	.	.	.	.	.	.	.	.	.	.	.	.	.	16dJJ	.	16ddJJ	.	16dJJ 16dd	.	16ddJJ	.	.	.
8ryy	.	8ryy	.	8ryy	.	4ryy	.	.	.	.	.	.	.	.	.	.	.	.	16c#XLL	.	16dd-XLL	.	16c#XLL 16cc#X	.	16cc#XLL	.	.	.
.	.	.	.	.	.	.	.	.	.	.	.	.	.	.	.	.	.	.	16B#XJ	.	16ccJ	.	16B#XJ 16b#X	.	16b#XJ	.	.	.
8ryy	.	16ryy	.	16ryy	.	.	.	.	.	.	.	8G-X	.	8g-X/	.	.	.	.	8c#J	.	8dd-J	.	8c#J 8cc#	.	8cc#J	.	.	.
.	.	16ryy	.	16ryy	.	.	.	.	.	.	.	.	.	.	.	.	.	.	.	.	.	.	.	.	.	.	.	.
8ryy	.	16ryy	.	8ryy	.	8ryy	.	.	.	.	.	4E-X	.	4e-X/	.	.	.	.	8d^^	.	8dd^^	.	8d^^ 8dd	.	8dd^^	.	.	.
.	.	16ryy	.	.	.	.	.	.	.	.	.	.	.	.	.	.	.	.	.	.	.	.	.	.	.	.	.	.
8ryy	.	8ryy	.	8ryy	.	8ryy	.	.	.	.	.	.	.	.	.	.	.	.	[8BnL	.	[8bXL	.	8BnL [8bn	.	[8bnL	.	.	.
=107	=107	=107	=107	=107	=107	=107	=107	=107	=107	=107	=107	=107	=107	=107	=107	=107	=107	=107	=107	=107	=107	=107	=107	=107	=107	=107	=107	=107
*	*	*	*	*	*	*	*	*	*	*	*	*	*	*	*	*	*	*	*	*	*	*	*^	*	*	*	*	*
8ryy	.	8ryy	.	16ryy	.	8ryy	.	4%3r	.	4%3r	.	8F-X^^<	.	8f-X^^>/	2.B-]\	.	2.ryy	.	8BJ]	.	8bJ]	.	8B 8b]	8ryy	.	8bJ]	.	4r	.
.	.	.	.	16ryy	.	.	.	.	.	.	.	.	.	.	.	.	.	.	.	.	.	.	.	.	.	.	.	.	.
*	*	*	*	*	*	*	*	*	*	*	*	*	*	*	*	*	*	*	*clefF4	*	*	*	*	*	*	*	*	*	*
8ryy	.	8ryy	.	8ryy	.	16ryy	.	.	.	.	.	4D-X	.	4d-X/	.	.	.	.	8c	.	8cc	.	8ccJ	8cc	.	8cc	.	.	.
.	.	.	.	.	.	16ryy	.	.	.	.	.	.	.	.	.	.	.	.	.	.	.	.	.	.	.	.	.	.	.
8ryy	.	8ryy	.	16ryy	.	8ryy	.	.	.	.	.	.	.	.	.	.	.	.	4A	.	4a	.	4a	4a	.	4a	.	4r	.
.	.	.	.	16ryy	.	.	.	.	.	.	.	.	.	.	.	.	.	.	.	.	.	.	.	.	.	.	.	.	.
8ryy	.	16ryy	.	8ryy	.	16ryy	.	.	.	.	.	8BB-	.	8B-/	.	.	.	.	.	.	.	.	.	.	.	.	.	.	.
.	.	16ryy	.	.	.	16ryy	.	.	.	.	.	.	.	.	.	.	.	.	.	.	.	.	.	.	.	.	.	.	.
!	!	!	!	!	!	!	!	!	!	!	!	!	!	!	!	!	!	!	!	!	!	!	!LO:TX:a:t=à2	!	!	!	!	!	!
16ryy	.	8ryy	.	8ryy	.	16ryy	.	.	.	.	.	4D-	.	4d-/	.	.	.	.	8F#X^^	.	8f#X^^	.	8f#X^^<	4ryy	.	8r	.	8r	.
!LO:TX:b:i:t=marc.	!	!	!	!	!	!	!	!	!	!	!	!	!	!	!	!	!	!	!	!	!	!	!	!	!	!	!	!	!
16ryy	.	.	.	.	.	16ryy	.	.	.	.	.	.	.	.	.	.	.	.	.	.	.	.	.	.	.	.	.	.	.
16ryy	.	8ryy	.	8ryy	4ryy	8ryy	.	.	.	.	.	.	.	.	.	.	.	.	(8ALi	.	(8ddLi	.	(8aLi	.	.	(8dddLi	ff	(8dddLi	ff
16ryy	.	.	.	.	.	.	.	.	.	.	.	.	.	.	.	.	.	.	.	.	.	.	.	.	.	.	.	.	.
*	*	*	*	*	*	*	*	*	*	*	*	*	*	*v	*v	*	*	*	*	*	*	*	*v	*v	*	*	*	*	*
=	=	=	=	=	=	=	=	=	=	=	=	=	=	=	=	=	=	=	=	=	=	=	=	=	=	=	=
*-	*-	*-	*-	*-	*-	*-	*-	*-	*-	*-	*-	*-	*-	*-	*-	*-	*-	*-	*-	*-	*-	*-	*-	*-	*-	*-	*-
!!!system-decoration: [([(s1,s2,s3,s4,s5,s6)])][([(s7,s8)][(s9,s10)])][(s11)](s12)[({(s13,s14)})]
!!!RDF**kern: > = above
!!!RDF**kern: < = below
!!!EED: Daniel Wright
!!!EEV: 2021/07/16
!!!EED2: Jason Lee
!!!EEV2: 2022/01/30
!!!RDF**kern: i = marked note, color="hotpink", text="extra("
